src/svg/spotify.svg

<svg xmlns="http://www.w3.org/2000/svg" viewBox="0 0 32 32" style="enable-background:new 0 0 32 32" xml:space="preserve"><path d="M24.2 12.7c.5.4.6 1.1.2 1.6-.3.4-.9.6-1.4.4-3.9-2.3-10.3-2.5-13.9-1.4-.6.2-1.2-.1-1.4-.7-.2-.6.1-1.2.7-1.4 4.3-1.4 11.4-1.1 15.8 1.5zm-1.5 4.1c-4.1-2.3-9-2.9-13.5-1.6-.5.1-.8.7-.6 1.2s.7.8 1.2.6c3.8-1.2 8.7-.6 12 1.4.4.3 1 .1 1.3-.3.1-.5 0-1.1-.4-1.3zm-1.4 3.5c-3.2-1.9-7.1-2.4-11.7-1.3-.4.1-.7.5-.6.9.1.4.5.7.9.6 4.2-1 7.7-.6 10.5 1.2.4.2.8.1 1-.3.3-.4.2-.9-.1-1.1zM32 0v32H0V0h32zm-4 16c0-6.6-5.4-12-12-12S4 9.4 4 16s5.4 12 12 12 12-5.4 12-12z"/></svg>

<?xml version="1.0" encoding="utf-8"?>
<!-- Generator: Adobe Illustrator 25.2.3, SVG Export Plug-In . SVG Version: 6.00 Build 0)  -->
<svg version="1.1" id="Layer_1" xmlns="http://www.w3.org/2000/svg" xmlns:xlink="http://www.w3.org/1999/xlink" x="0px" y="0px"
	 viewBox="0 0 32 32" style="enable-background:new 0 0 32 32;" xml:space="preserve">
<path d="M24.2,12.7c0.5,0.4,0.6,1.1,0.2,1.6c-0.3,0.4-0.9,0.6-1.4,0.4c-3.9-2.3-10.3-2.5-13.9-1.4c-0.6,0.2-1.2-0.1-1.4-0.7
	c-0.2-0.6,0.1-1.2,0.7-1.4C12.7,9.8,19.8,10.1,24.2,12.7z M22.7,16.8c-4.1-2.3-9-2.9-13.5-1.6c-0.5,0.1-0.8,0.7-0.6,1.2
	s0.7,0.8,1.2,0.6c3.8-1.2,8.7-0.6,12,1.4c0,0,0,0,0,0c0.4,0.3,1,0.1,1.3-0.3v0C23.2,17.6,23.1,17,22.7,16.8z M21.3,20.3
	c-3.2-1.9-7.1-2.4-11.7-1.3c-0.4,0.1-0.7,0.5-0.6,0.9c0.1,0.4,0.5,0.7,0.9,0.6c4.2-1,7.7-0.6,10.5,1.2c0,0,0,0,0,0
	c0.4,0.2,0.8,0.1,1-0.3c0,0,0,0,0,0C21.7,21,21.6,20.5,21.3,20.3z M32,0v32H0V0H32z M28,16c0-6.6-5.4-12-12-12S4,9.4,4,16
	s5.4,12,12,12S28,22.6,28,16z"/>
</svg>
